X:0113
T:Quick Step 43d. Regt.
M:6/8
L:1/8
Q:3/8=84
I: :: || DC
P:ABA % Aird uses a da capo
Z:Jack Campin * www.campin.me.uk * 2009
K:G
P:A
BcB  A2G|gfe  d3 |g2d e2d|gfe d3    |
BcB  A2G|gfe  d3 |F2G AcB|A3  G3   :|
P:B
B2c  ded|dcB  c2A|A2B cdc|cBA BGB/c/|
d>ed dBc|d>ed dBc|ded dcB|B3  A3   :|

